svgs/regular/car-bus.svg

<svg xmlns="http://www.w3.org/2000/svg" viewBox="0 0 640 512"><!--! Font Awesome Pro 6.4.2 by @fontawesome - https://fontawesome.com License - https://fontawesome.com/license (Commercial License) Copyright 2023 Fonticons, Inc. --><path d="M64.5 80H192 321.4C302.1 65.3 263.5 48 192 48C126.6 48 86.2 64.8 64.5 80zM48 128v80H168V128H48zm0 128v96c0 13.3 10.7 24 24 24H192v48H80v32c0 13.3-10.7 24-24 24s-24-10.7-24-24V411.9C12.7 399 0 377 0 352V118.2c0-22 4.6-51.9 28.8-71.4C58.6 22.7 111.5 0 192 0c84.9 0 135.8 22.1 164.5 46.6c23.4 20 27.5 49.9 27.5 71.6V128H348.2c-4.1 0-8.2 .3-12.2 .8V128H216v80h36.9l-13.7 48H192 48zm56 32a24 24 0 1 1 0 48 24 24 0 1 1 0-48zm257.8-80c-10.1 0-19.2 6.4-22.6 15.9L322.1 272H541.9l-17.2-48.1c-3.4-9.6-12.5-15.9-22.6-15.9H361.8zm-96.4 79.9L294 207.8c10.2-28.7 37.4-47.8 67.8-47.8H502.2c30.4 0 57.6 19.1 67.8 47.8l28.6 80.1c.2 .5 .3 .9 .5 1.4C623.8 306.7 640 335.5 640 368v32 16 32 40c0 13.3-10.7 24-24 24s-24-10.7-24-24V448H272v40c0 13.3-10.7 24-24 24s-24-10.7-24-24V448 416 400 368c0-32.5 16.2-61.3 40.9-78.7c.1-.5 .3-.9 .5-1.4zM544 320H320c-26.5 0-48 21.5-48 48v32H592V368c0-26.5-21.5-48-48-48zM336 336a24 24 0 1 1 0 48 24 24 0 1 1 0-48zm168 24a24 24 0 1 1 48 0 24 24 0 1 1 -48 0z"/></svg>

<svg xmlns="http://www.w3.org/2000/svg" viewBox="0 0 640 512"><!--! Font Awesome Pro 6.1.1 by @fontawesome - https://fontawesome.com License - https://fontawesome.com/license (Commercial License) Copyright 2022 Fonticons, Inc. --><path d="M48 256V352C48 365.3 58.75 376 72 376H192V424H80V456C80 469.3 69.25 480 56 480C42.75 480 32 469.3 32 456V411.9C12.7 398.1 0 376.1 0 352V118.2C0 96.18 4.597 66.28 28.76 46.81C58.65 22.73 111.5 0 192 0C276.9 0 327.8 22.09 356.5 46.62C379.9 66.62 384 96.49 384 118.2V128H348.2C344.1 128 340 128.3 336 128.8V128H216V208H252.9L239.2 256L48 256zM321.4 80C302.1 65.3 263.5 48 192 48C126.6 48 86.16 64.83 64.46 80H321.4zM48 128V208H168V128H48zM80 312C80 298.7 90.75 288 104 288C117.3 288 128 298.7 128 312C128 325.3 117.3 336 104 336C90.75 336 80 325.3 80 312zM312 360C312 346.7 322.7 336 336 336C349.3 336 360 346.7 360 360C360 373.3 349.3 384 336 384C322.7 384 312 373.3 312 360zM552 360C552 373.3 541.3 384 528 384C514.7 384 504 373.3 504 360C504 346.7 514.7 336 528 336C541.3 336 552 346.7 552 360zM294 207.8C304.3 179.1 331.4 160 361.8 160H502.2C532.6 160 559.7 179.1 569.1 207.8L598.6 287.9C598.8 288.4 598.9 288.9 599.1 289.3C623.8 306.7 640 335.5 640 368V488C640 501.3 629.3 512 616 512C602.7 512 592 501.3 592 488V448H272V488C272 501.3 261.3 512 248 512C234.7 512 224 501.3 224 488V368C224 335.5 240.2 306.7 264.9 289.3C265.1 288.9 265.2 288.4 265.4 287.9L294 207.8zM361.8 208C351.7 208 342.6 214.4 339.2 223.9L322.1 272H541.9L524.8 223.9C521.4 214.4 512.3 208 502.2 208H361.8zM544 320H320C293.5 320 272 341.5 272 368V400H592V368C592 341.5 570.5 320 544 320z"/></svg>
